X:1
T:James Gibb editions
T:Aperite mihi portas - Anerio
%%score [ 1 2 3 4 ]
L:1/8
Q:1/4=90
M:4/4
K:Bb
V:1 treble-8 nm="Tenor I" snm="T I"
V:2 treble-8 nm="Tenor II" snm="T II"
V:3 bass nm="Bass I" snm="B I"
V:4 bass nm="Bass II" snm="B II"
V:1
 g3 g ^f2 g2 | (=e3 ^f"^Aperite mihi portas" g2) g2 | =f4 f2 f2 | g6 g2 | %4
w: A- pe- ri- te|mi\- * * hi|por- tas ju-|sti- ti-|
 f2 f2 =e2"^Giovanni Francesco Anerio\n(1567-1630)" ed | ^c (d2 c d2) dd | %6
w: ae in- gres- sus in|e- as * * con- fi-|
[M:4/4][K:treble-8] cc B>B A2 aa | gg f>f =e4 | z ccd =e>e e2 | z2 g2 ff =e/d/c/B/ | %10
w: te- bor Do- mi- no, con- fi-|te- bor Do- mi- no|haec por- ta Do- mi- ni,|ju- sti in- tra\- * * *|
 Ad (c>B A2) f2 | f8 | z agg f4 | e2 e2 d4 | !fermata!d8 |] %15
w: * bunt, in * * e-|am,|ju- sti in- tra-|bunt in e-|am.|
V:2
 d3 d d2 d2 | c2 c2 d4 | d4 d2 (d2- | d2 cB c2) c2 | d2 d2 ^c2 cd | =e4 d2 ff | %6
w: A- pe- ri- te|mi- hi por-|tas ju- sti\-||ae in- gres- sus in|e- as con- fi-|
[M:4/4][K:treble-8] =ee d>d c2 ff | =ee d>d ^c4 | z AA=B =c>c cg | ff (=e/d/c/B/ A)d z g | %10
w: te- bor Do- mi- no, con- fi-|te- bor Do- mi- no|haec por- ta Do- mi- ni, ju-|sti in- tra\- * * * * bunt, ju-|
 ff =e2 d2 d2 | c4 d4 | f2 =ed c2 Bd | (c3 B A4) | !fermata!=B8 |] %15
w: sti in- tra- bunt in|e- am,|ju- sti in- tra- bunt in|e\- * *|am.|
V:3
 B,3 B, A,2 D,2 | G,2 A,2 B,4- | B,2 A,4 B,2 | G,6 G,2 | A,2 D,2 A,2 A,B, | G,4 D,2 A,A, | %6
w: A- pe- ri- te|mi- hi por-|* tas ju-|sti- ti-|ae in- gres- sus in|e- as con- fi-|
[M:4/4] A,A, F,>F, F,2 CC | CC A,>A, A,4 | z =E,E,G, G,>G, G,C, | D,2 =E,2 F,2 G,C, | %10
w: te- bor Do- mi- no, con- fi-|te- bor Do- mi- no|haec por- ta Do- mi- ni, ju-|sti in- tra- bunt, ju-|
 D,2 =E,2 F,2 A,B, | (A,>G, A,2) B,4 | z CB,B, (A,/G,/F,/=E,/ D,)B, | G, (A,2 G, ^F, G,2 F,) | %14
w: sti in- tra- bunt in|e\- * * am.|ju- sti in- tra\- * * * * bunt|in e\- * * * *|
 !fermata!G,8 |] %15
w: am.|
V:4
 G,,3 G,, D,2 =B,,2 | C,2 A,,2 (G,,A,,B,,C, | D,4) D,2 B,,2 | E,6 E,2 | D,4 z4 | z4 z2 D,D, | %6
w: A- pe- ri- te|mi- hi por\- * * *|* tas ju-|sti- ti-|ae|con- fi-|
[M:4/4] A,,A,, B,,>B,, F,,2 F,F, | C,C, D,>D, A,,4 | z A,,A,,G,, C,>C, C,2 | z2 C,2 D,2 =E,2 | %10
w: te- bor Do- mi- no, con- fi-|te- bor Do- mi- no|haec por- ta Do- mi- ni,|ju- sti in-|
 F,2 G,C, D,4- | D,4 B,,4 | F,,2 G,,2 A,,2 B,,2 | C,2 C,2 D,4 | !fermata!G,,8 |] %15
w: tra- bunt in e\-|* am,|ju- sti in- tra-|bunt in e-|am.|

